X:1
T:Title
%%score { 1 | 2 }
L:1/8
M:6/8
K:Bb
V:1 treble nm="Grand Piano"
V:2 bass 
V:1
 z3 z2[Q:1/4=100] [DF] | [DF][DG][DA] [DB][DA][DB] | [_DG]3 .[=DF]2 [DF] | %3
 [DF][DG][DA] [DB][DA][DB] | G3- G z G | FFG ABc | [Fd]3 .[DB]2 [DA] | [=EG][EG][EA] [EB][EA][EB] | %8
 [Ec]6 | [Fd]3 [Ge]3 | d3 c3 | =B2 c d2 c | [DB]3 .[DF]3 | [EG]3 [GB]3 | [Fd]3 [DB]3 | %15
 [Gd]2 [Gc] [FB]2 [EA] |[M:5/8] [DB]-[DB]- [DB]3 |] %17
V:2
 z3 z2 [B,,F,] | [B,,F,][B,,F,][B,,F,] [B,,F,][B,,F,][B,,F,] | [B,,=E,]3 .[B,,F,]2 [B,,B,] | %3
 [B,,B,][B,,B,][B,,B,] [B,,B,][B,,B,][B,,B,] | [E,B,E]3- [E,B,E] z [E,B,E] | %5
 [F,A,E][F,A,E][F,B,E] [F,CE][F,B,E][F,A,E] | [B,,B,]3 .[B,,F,]2 [B,,F,] | %7
 [C,B,][C,B,][C,A,] [C,G,][C,G,][C,G,] | [F,A,]6 | [B,,B,]3 [B,,B,]3 | [F,A,F]3 [F,A,E]3 | %11
 [F,_A,D]2 [F,=A,E] [F,A,F]2 [F,A,E] | [B,,B,]3 .[B,,B,]3 | [E,B,]3 [E,B,]3 | [B,,B,]3 [B,,B,]3 | %15
 [E,B,]2 [E,E] [F,D]2 [F,C] |[M:5/8] [B,,B,]-[B,,B,]- [B,,B,]3 |] %17

